X:185
T: Over the Moor to Peggy
T: Trasna an Mh\'ointe\'ain go Peige
S: B.Breathnach: "Ceol Rince na hEireann" II/206
Z: B.Black
L: 1/8
M: 4/4
R: reel
K: G
ge|d2 BG dGBG|d2 BG efge|d2 BG dGBG|cBAB cdge|
d2 BG dGBG|d2 BG efge|d2 BG dGBG|cBAB c2 ||
Bc|dg g2 dgeg|dg g2 d2 Bc|dg g2 defe|dcAB c2 Bc|
dg g2 dgeg|dg g2 d2 Bc|dg g2 aggf|dcAB cd ||
